X:11993
T:Hau der Chatz der Schwanz ab (Kreuzpolka) G (kp07693)
T:Hanny Christen. Bd.IV  Aargau, Basel I. S.355 (kp07693) orig. G
T: Alte Seltisberger Musik. S.354-377
T:Überliefert durch Erwin Schàfer-Spinnler, Liestal, Oktober 1941
%%MIDI program 21
R:Kreuzpolka
M:2/4
L:1/8
K:G %%MIDI gchordon
"G"B>B cB | "D7".A2!>!d2 | d>d fe | "G".d2!>!g2 | B>B cB | "D7"BAA2 | A>A BA | "G"AGG2 | 
B>B cB | "D7".A2!>!d2 | d>d fe | "G".d2!>!g2 | B>B cB | "D7"BA f>e |  dc BA | "G"GG Gz :: 
"G"d>d ed | "D7".f2!>!f2 | d>d ed | "G".g2!>!g2 | gf ed | "D7"fed2 | fe dc | "G"edB2 | 
d>d ed | "D7".f2!>!f2 | d>d ed | "G".g2!>!g2 | gf ed | "D7"fed2 | fe df | "G"gg g2 :| 
W:
W:Anmerkung H.C.: 2 Klarinetten, Bass,  Handorgel. 1905
% kp07693
% Sep 16, 2016

